X:94
M:2/4
L:1/8
K:G
|: d | BdGg | egBg | BdGB | A/G/F/E/ Dd | BdGg | egdg | BgAf | [D3B3g3] :|

